X:47
T: DER KNABE ROBERT FEST UND WERT
N: B0057
O: Europa, Mitteleuropa, Deutschland
R: Kriegs -, Sieges -, Soldaten - Lied
M: 4/4
L: 1/8
K: F
cAG | F2F2G2G2 | A4z
cfc | A2A2B2B2 | c4z
ccc | e3ce3c | f4z
ABc | d2B2G2c2 | F4z

